X: 22510
T: Lady Elizabeth Cole's Reel
R: jig
M: 6/8
K: Dminor
^c|:d2A B2G|A2F G2E|F2D E2D|^CEA A,2^c|
dAd BGB|AFA GFE|FGA GFE|1 D3 D2^c:|2 D3 D2 F/G/||
|:AFD AFD|BAB G2F|GEC GEC|AGA F2E|
FDB, FDB,|GFG E2D|^CDE A,2C|1 FD^C D2 F/G/:|2 FD^C D2^c||

